X:1
T:Memories of Galilee
T:Memories of Galilee
T:Horatio Richmond Palmer
T:Robert Morris, 1874
T:Public Domain Courtesy of the Cyber Hymnal™
T:Public Domain Courtesy of the Cyber Hymnal™
C:Horatio Richmond Palmer
Z:Public Domain
Z:Courtesy of the Cyber Hymnal™
%%score ( 1 2 ) ( 3 4 )
L:1/8
Q:1/4=95
M:4/4
K:A
V:1 treble 
V:2 treble 
V:3 bass 
V:4 bass 
V:1
 E<A E/ | (z3/2 c>)EB>E x3 | (z3/2 d>)EG>E x3 | (z3/2 B>)EA>E x3 | (z3/2 c>)Ac>A x3 | %5
w: 1.~Each coo- ing|* dove and sigh-|* ing bough, That|* makes the eve|* so blest to|
w: 2.~Each flower- y|* glen and moss-|* y dell, Where|* hap- py birds|* in song a-|
w: 4.~And when I|* read the thrill-|* ing lore Of|* Him Who walked|* up- on the|
 (z3/2 e>)cB>A x3 | (z3/2 d>)FB>d x3 | (z3/2 c>)EG>B x3 | (z3/2 [CA]2) x3 ||"^Refrain" E2 | %10
w: * me, * Has|* some- thing far|* di- vin- er|||
w: * gree, * Through|* sun- ny morn|* the prais- es|||
w: * sea, * I|* long, oh, how|* I long once|||
 [CA]>[DB] [Ec]4 E2 | [CA]>[DB] [Ec]4 [Ac]2 | [GB]>[Ac] [Bd]4 [GB]2 | [Ac]>[Bd] [ce]4 E2 | %14
w: now, * It bears|me back to Gal-|i- lee. * *||
w: tell * Of sights|and sounds in Gal-|i- lee. O Gal-|i- lee, sweet Gal-|
w: more * To fol-|low Him in Gal-|i- lee. * *||
 [CA]>[DB] [Ec]4 E2 | [CA]>[DB] [Ec]4 [Ac]2 | [Bd]3 [Ac] [GB][Fd] [Ec]>[DB] | [CA]4 z3/2 |] %18
w: ||||
w: i- lee, Where Je-|sus loved so much|to be, O Gal- i- lee,|blue|
w: ||||
V:2
 x5/2 | c4- (C<C C/ E2) | d4- (E<E E/ E2) | B4- (D<D D/ D2) | c4- (C<C C/ C2) | e4- (C<E A/ _G2) | %6
 d4- (F<F F/ F2) | c4- (E<E E/ E2) | A4- C<C C/ || E2 | x6 E2 | x8 | x8 | x6 E2 | x6 E2 | x8 | x8 | %17
 x11/2 |] %18
V:3
 z/ z2 | z3/2 ([A,,E,]<[A,,E,][A,,E,]/ [A,,E,]2) z2 x/ | %2
 z3/2 ([E,G,]<[E,G,][E,G,]/ [E,G,]2) z2 x/ | z3/2 ([E,G,]<[E,G,][E,G,]/ [E,G,]2) z2 x/ | %4
 z3/2 ([A,,E,]<[A,,E,][A,,E,]/ [A,,E,]2) z2 x/ | z3/2 ([A,,A,]<[A,,C][A,,C]/ [C,A,]2) z2 x/ | %6
 z3/2 ([D,A,]<[D,A,][D,A,]/ [D,A,]2) z2 x/ | z3/2 ([E,A,]<[E,A,][E,A,]/ [E,G,]2) z2 x/ | %8
 z3/2 ([A,,E,]<[A,,E,][A,,E,]/ [A,,E,]2) x/ || E,2 | [A,,E,]>[A,,E,] [A,,A,]4 E,2 | %11
 [A,,E,]>[A,,E,] [A,,A,]4 [A,,A,]2 | [E,B,]>[E,A,] [E,G,]4 [E,D]2 | [A,C]>[E,B,] [A,,A,]4 E,2 | %14
 [A,,E,]>[A,,E,] [A,,A,]4 E,2 | [A,,E,]>[A,,E,] [A,,A,]4 [A,,A,]2 | %16
 (E,[E,F,]G,)A, B,C, [E,F,]>[E,G,] | [A,,A,]4 z3/2 |] %18
V:4
 x5/2 | x17/2 | x17/2 | x17/2 | x17/2 | x17/2 | x17/2 | x17/2 | x13/2 || E,2 | x6 E,2 | x8 | x8 | %13
 x6 E,2 | x6 E,2 | x8 | E, E,2 C,2 x3 | x11/2 |] %18

